X:047
T:Princess Royal TS.047
M:4/4
L:1/8
Q:1/2=80
S:Thomas Sands’ MS,1810,Lincolnshire
R:.hornpipe
O:England;Lincolnshire
Z:vmp.Ruairidh Greig, 2011
K:Gm
“^as written”
dcB2ABG2|dcB2ABG2|d2e2dec2|fed2cdB2|
dc BdcB A/c/B/A/|GBAG ^F2D2|d3c BG A^F|D2^F2G4:|
|:d2|gfga gfga|b2B2B2ba|gfed edcB|A2^F2F2B2|BBc2ccd2|
d2g2fBe2|dGc2B3A|GBAG^F2D2|d3c BABG|D2^F2G2:|]
zzzz||
“^Version edited by Chris Partington”
dc|B2AB G2dc|B2AB G2d2|e2dec2fe|d2cd B2dc |
BdcB AcBA|GBAG ^F2D2|[M:3/2] d3c BGA^F D2^F2|[M:4/4]G4-G2:|
|:d2|gfga gfga|b2B2B2ba|gfed edcB|A2^F2F4|B2BBc2cc|
d2d2g4|f2B2e4|d2G2c4|[M:3/2]B3A GBAG^F2D2|d3c BABG D2^F2|[M:4/4]G4-G2:|

